source/img/icon-home.svg

<svg width="16" height="17" viewBox="0 0 16 17" fill="none" xmlns="http://www.w3.org/2000/svg">
<path d="M12.7984 6.60475L7.41445 1.44331C7.17813 1.21672 6.82176 1.21675 6.58554 1.44328L1.20152 6.60477C1.01221 6.78626 0.949681 7.06588 1.04216 7.31713C1.13467 7.56837 1.35991 7.7307 1.61601 7.7307H2.47593V12.9021C2.47593 13.1071 2.63394 13.2734 2.82882 13.2734H5.77992C5.9748 13.2734 6.13282 13.1071 6.13282 12.9021V9.76218H7.86723V12.9021C7.86723 13.1071 8.02525 13.2734 8.22013 13.2734H11.1711C11.366 13.2734 11.524 13.1072 11.524 12.9021V7.7307H12.3841C12.6401 7.7307 12.8654 7.56835 12.9579 7.31713C13.0503 7.06586 12.9877 6.78626 12.7984 6.60475Z" fill="white"/>
<path d="M12.16 1.27338H9L12.6305 4.57449V1.74388C12.6305 1.48403 12.4198 1.27338 12.16 1.27338Z" fill="white"/>
</svg>

<svg width="16" height="17" fill="none" xmlns="http://www.w3.org/2000/svg"><path d="M12.798 6.605L7.414 1.443a.59.59 0 00-.828 0L1.202 6.605a.666.666 0 00-.16.712.613.613 0 00.574.414h.86v5.171c0 .205.158.371.353.371h2.95a.363.363 0 00.354-.37v-3.14h1.734v3.14c0 .204.158.37.353.37h2.951a.362.362 0 00.353-.37V7.73h.86a.613.613 0 00.574-.414.667.667 0 00-.16-.712zm-.638-5.332H9l3.63 3.301v-2.83a.47.47 0 00-.47-.47z" fill="#fff"/></svg>
